**kern	**kern	**kern	**kern
*MM60	*MM60	*MM60	*MM60
*k[b-e-a-]	*k[b-e-a-]	*k[b-e-a-]	*k[b-e-a-]
*M2/2	*M2/2	*M2/2	*M2/2
*tb32	*tb32	*tb32	*tb32
4r	4r	4c	4r
=1	=1	=1	=1
1r	1r	4g	1r
.	.	4g	.
.	.	4g	.
.	.	4g	.
=2	=2	=2	=2
1r	1r	[2a-	1r
.	.	8a-]	.
.	.	8f	.
.	.	8d	.
.	.	8f	.
=3	=3	=3	=3
1r	1r	4B	1r
.	.	4a-	.
.	.	4g	.
.	.	4f	.
=4	=4	=4	=4
1r	1r	4e-	2r
.	.	8d	.
.	.	8e-	.
.	.	8c	4r
.	.	8B	.
.	.	8c	4g
.	.	8d	.
=5	=5	=5	=5
1r	1r	8e-	4cc
.	.	8c	.
.	.	8d	4cc
.	.	8e-	.
.	.	8f	4cc
.	.	8g	.
.	.	8a	4cc
.	.	8b	.
=6	=6	=6	=6
1r	1r	8cc	[2ee-
.	.	8g	.
.	.	8e-	.
.	.	8g	.
.	.	[2c	8ee-]
.	.	.	8cc
.	.	.	8a
.	.	.	8cc
=7	=7	=7	=7
1r	1r	8c]	4f#
.	.	8B-	.
.	.	8A	4ee-
.	.	8c	.
.	.	8B-	4dd
.	.	8A	.
.	.	8G	4cc
.	.	8F#	.
=8	=8	=8	=8
1r	1r	8G	4b-
.	.	8B-	.
.	.	8c	8a
.	.	8d	8b-
.	.	[2e-	8g
.	.	.	8gg
.	.	.	8ff
.	.	.	8gg
=9	=9	=9	=9
1r	1r	8e-]	4a-
.	.	8d	.
.	.	8c	4gg
.	.	8e-	.
.	.	8d	4ff
.	.	8c	.
.	.	8B	4dd
.	.	8A	.
=10	=10	=10	=10
2r	1r	8B	4g
.	.	8G	.
.	.	8A	4ff
.	.	8B	.
4r	.	8c	4ee-
.	.	8d	.
4C	.	8e-	[4cc
.	.	8f	.
=11	=11	=11	=11
4G	1r	8e-	8cc]
.	.	8c	8ee-
4G	.	8d	8dd
.	.	8e-	8cc
4G	.	8d	8b
.	.	8f	8a
4G	.	8e-	8g
.	.	8d	8f
=12	=12	=12	=12
[2A-	1r	8c	4e-
.	.	8d	.
.	.	8e-	2cc
.	.	8c	.
8A-]	.	[2f	.
8F	.	.	.
8D	.	.	4ff
8F	.	.	.
=13	=13	=13	=13
4BB	1r	8f]	4g
.	.	8e-	.
4A-	.	8d	4b
.	.	8f	.
4G	.	8e-	4cc
.	.	8f	.
4F	.	8d	4b
.	.	8e-	.
=14	=14	=14	=14
4E-	2r	4G	8cc
.	.	.	8gg
8D	.	4B	8ff
8E-	.	.	8gg
4C	4r	4c	8ee-
.	.	.	8ff
4BB-	4G	[4g	8dd
.	.	.	8ee-
=15	=15	=15	=15
1AA	4c	8g]	[1cc
.	.	8b-	.
.	4c	8a	.
.	.	8g	.
.	4c	8f#	.
.	.	8g	.
.	4c	8e	.
.	.	8f#	.
=16	=16	=16	=16
8GG	[2e-	[2g	8cc]
8G	.	.	8b
8E-	.	.	8cc
8G	.	.	8dd
[2C	8e-]	4g]	[2ee-
.	8c	.	.
.	8A	4cc	.
.	8c	.	.
=17	=17	=17	=17
8C]	4F#	[2a	4ee-]
8c	.	.	.
8A	4e-	.	4cc
8c	.	.	.
2F#	4d	8a]	[2aa
.	.	8cc	.
.	4c	8dd	.
.	.	8ee-	.
=18	=18	=18	=18
[2G	4B-	2.dd	8aa]
.	.	.	8gg
.	8A	.	8ff#
.	8B-	.	8gg
8G]	4G	.	[2bb-
8G	.	.	.
8D	4f	4dd	.
8F	.	.	.
=19	=19	=19	=19
4E	2g	2cc	8bb-]
.	.	.	8ff
4G	.	.	8ee
.	.	.	8dd
4C	4r	4r	8ee
.	.	.	8gg
4E	[4c	4g	8cc
.	.	.	8b-
=20	=20	=20	=20
[2F	8c]	4f	8a-
.	8B-	.	8cc
.	8A-	4r	8ff
.	8G	.	8gg
8F]	4F	4r	[2aa-
8F	.	.	.
8C	4e-	4cc	.
8E-	.	.	.
=21	=21	=21	=21
4D	2f	2b-	8aa-]
.	.	.	8ee-
4F	.	.	8dd
.	.	.	8cc
4BB-	4r	4r	8dd
.	.	.	8ff
4D	[4B-	4f	8b-
.	.	.	8a-
=22	=22	=22	=22
[2E-	8B-]	4e-	8g
.	8A-	.	8b-
.	8G	4r	8ee-
.	8F	.	8ff
8E-]	4E-	2r	[2gg
8E-	.	.	.
8C	4e-	.	.
8E-	.	.	.
=23	=23	=23	=23
[2AA-	8c	1r	8gg]
.	8e-	.	8cc
.	8f	.	8dd
.	8g	.	8ee-
8AA-]	4a-	.	[2ff
8A-	.	.	.
8F	4A-	.	.
8A-	.	.	.
=24	=24	=24	=24
4BB	4G	2r	8ff]
.	.	.	8ee-
4GG	4B	.	8ff
.	.	.	8gg
[2C	4c	4r	8ff
.	.	.	8ee-
.	4e-	4c	8dd
.	.	.	8cc
=25	=25	=25	=25
2C]	8d	4g	[1dd
.	8F	.	.
.	8G	4g	.
.	8A-	.	.
2BB	8G	4g	.
.	8F	.	.
.	8E-	4g	.
.	8D	.	.
=26	=26	=26	=26
2C	2E-	[2a-	8dd]
.	.	.	8cc
.	.	.	8dd
.	.	.	8ee-
2r	[2F	8a-]	8dd
.	.	8f	8cc
.	.	8d	8b
.	.	8f	8cc
=27	=27	=27	=27
1r	8F]	4B	4dd
.	8D	.	.
.	8E-	4a-	4b
.	8F	.	.
.	8E-	4g	4cc
.	8D	.	.
.	8C	4f	4dd
.	8BB	.	.
=28	=28	=28	=28
1r	8C	4e-	[2g
.	8E-	.	.
.	8F	8d	.
.	8G	8e-	.
.	2A-	8c	4g]
.	.	8B	.
.	.	8c	4f
.	.	8d	.
=29	=29	=29	=29
1r	4G	8e	[2b-
.	.	8d	.
.	4F	8e	.
.	.	8f	.
.	4E	[2g	8b-]
.	.	.	8a-
.	4C	.	8b-
.	.	.	8cc
=30	=30	=30	=30
1r	8F	4g]	4a-
.	8E	.	.
.	8F	[4f	4dd-
.	8G	.	.
.	4A-	8f]	[2cc
.	.	8e	.
.	4G	8f	.
.	.	8g	.
=31	=31	=31	=31
1r	4F	[2a-	8cc]
.	.	.	8cc
.	4E-	.	8dd
.	.	.	8ee-
.	4D	8a-]	[2ff
.	.	8f	.
.	4C	8a-	.
.	.	8f	.
=32	=32	=32	=32
1r	8BB	[2g	8ff]
.	8G	.	8b
.	8A	.	8cc
.	8B	.	8dd
.	4c	8g]	[2ee-
.	.	8g	.
.	4B-	8a	.
.	.	8b-	.
=33	=33	=33	=33
1r	4A	[2cc	8ee-]
.	.	.	8dd
.	4G	.	8ee-
.	.	.	8cc
.	8F#	4cc]	[2dd
.	8D	.	.
.	8E	4cc	.
.	8F#	.	.
=34	=34	=34	=34
1r	8G	2b-	4dd]
.	8A	.	.
.	8B-	.	[4gg
.	8c	.	.
.	8d	[2a	8gg]
.	8e-	.	8ff#
.	8d	.	8gg
.	8c	.	8aa
=35	=35	=35	=35
1r	1B-	8a]	[2dd
.	.	8cc	.
.	.	8b-	.
.	.	8a	.
.	.	8g	4dd]
.	.	8f	.
.	.	8e-	[4bb-
.	.	8d	.
=36	=36	=36	=36
1r	1c	[1e-	8bb-]
.	.	.	8gg
.	.	.	8aa
.	.	.	8bb-
.	.	.	8aa
.	.	.	8gg
.	.	.	8ff#
.	.	.	8gg
=37	=37	=37	=37
1r	2F#	8e-]	2.aa
.	.	8ee-	.
.	.	8dd	.
.	.	8cc	.
.	8G	2b-	.
.	8A	.	.
.	8B-	.	[4gg
.	8c	.	.
=38	=38	=38	=38
1r	4d	[2a	8gg]
.	.	.	8gg
.	4d	.	8ff
.	.	.	8ee-
.	4d	8a]	[2ff
.	.	8ee-	.
.	4d	8dd	.
.	.	8cc	.
=39	=39	=39	=39
1r	[2e-	8b	2ff]
.	.	8dd	.
.	.	8b	.
.	.	8g	.
.	8e-]	[2cc	2ee-
.	8c	.	.
.	8A	.	.
.	8c	.	.
=40	=40	=40	=40
1r	4F#	8cc]	4dd
.	.	4b-	.
.	4e-	.	4cc
.	.	4a	.
.	4d	.	4b-
.	.	4g	.
.	4c	.	4a
.	.	8f#	.
=41	=41	=41	=41
1r	4B-	2g	8g
.	.	.	8dd
.	8A	.	8cc
.	8B-	.	8dd
.	8G	2r	4b-
.	8A	.	.
.	8B-	.	4gg
.	8c	.	.
=42	=42	=42	=42
1r	8d	4r	[2ff
.	8e-	.	.
.	8f	4dd	.
.	8d	.	.
.	8g	2b	8ff]
.	8f	.	8aa-
.	8e-	.	8gg
.	8d	.	8ff
=43	=43	=43	=43
1r	8c	8r	[2ee-
.	8d	8g	.
.	8e-	8cc	.
.	8c	8b-	.
.	8f	[2a-	8ee-]
.	8e-	.	8cc
.	8d	.	8ff
.	8c	.	8ee-
=44	=44	=44	=44
1r	8B-	8a-]	[2dd
.	8c	8cc	.
.	8d	8b-	.
.	8B-	8a-	.
.	8e-	[2g	8dd]
.	8d	.	8ff
.	8c	.	8ee-
.	8B-	.	8dd
=45	=45	=45	=45
1r	2A	8g]	[2cc
.	.	8c	.
.	.	8d	.
.	.	8e-	.
.	2A-	[2f	8cc]
.	.	.	8dd
.	.	.	8ee-
.	.	.	8ff
=46	=46	=46	=46
1r	2G	8f]	4gg
.	.	8b-	.
.	.	8dd-	4gg
.	.	8b-	.
.	8r	2e	4gg
.	8c	.	.
.	8B-	.	4gg
.	8c	.	.
=47	=47	=47	=47
1r	2F	8r	[2aa-
.	.	8c	.
.	.	8d	.
.	.	8e	.
.	4r	8f	8aa-]
.	.	8g	8ff
.	[4f	4a-	8dd
.	.	.	8ff
=48	=48	=48	=48
1r	8f]	4g	4b
.	8e-	.	.
.	8d	4b	4aa-
.	8f	.	.
.	8e-	4cc	4gg
.	8d	.	.
.	8c	[4dd	4ff
.	8B	.	.
=49	=49	=49	=49
2r	8c	8dd]	2ee-
.	8G	8dd	.
.	8A	8cc	.
.	8B	8dd	.
4r	8c	2ee-	8r
.	8d	.	8ff
4C	8e-	.	8gg
.	8f	.	8aa
=50	=50	=50	=50
4G	4g	8r	4bb
.	.	8dd	.
4G	4r	8ee-	4r
.	.	8ff	.
4G	8r	8ee-	4r
.	8d	8dd	.
4G	8e-	8cc	[4gg
.	8f	8b	.
=51	=51	=51	=51
[2A-	8e-	2.cc	8gg]
.	8d	.	8bb-
.	8c	.	8aa-
.	8B	.	8gg
8A-]	4c	.	[2ff
8F	.	.	.
8D	[4a-	8b	.
8F	.	8cc	.
=52	=52	=52	=52
4BB	8a-]	4dd	4ff]
.	4g	.	.
4A-	.	4b	4dd
.	4f	.	.
4G	.	4cc	4gg
.	4e-	.	.
4F	.	[4b	4aa-
.	8d	.	.
=53	=53	=53	=53
4E-	4e-	8b]	4gg
.	.	4cc	.
8D	4f	.	4ff
8E-	.	8b	.
8C	8g	[2cc	[2ee-
8E-	8e-	.	.
8AA-	8c	.	.
8C	8e-	.	.
=54	=54	=54	=54
4FF	[1A-	4cc]	8ee-]
.	.	.	8ee-
4E-	.	4c	8ff
.	.	.	8gg
4D	.	[2f	8ff
.	.	.	8ee-
4C	.	.	8dd
.	.	.	8cc
=55	=55	=55	=55
4BB	8A-]	2f]	8dd
.	8G	.	8b
4GG	8A	.	8cc
.	8B	.	8dd
4C	4.c	8r	8ee-
.	.	8d	8ff
4EE-	.	[4e-	[4gg
.	8B	.	.
=56	=56	=56	=56
1AA-	1c	4e-]	8gg]
.	.	.	8ff
.	.	4e	8aa-
.	.	.	8gg
.	.	4f	8ff
.	.	.	8ee-
.	.	4f#	8dd
.	.	.	8cc
=57	=57	=57	=57
2GG	4d	8g	2b
.	.	8d	.
.	4r	8e-	.
.	.	8f	.
2r	2G	8e-	2r
.	.	8d	.
.	.	8c	.
.	.	8B	.
=58	=58	=58	=58
1r	2A-	8c	1r
.	.	8e	.
.	.	8f	.
.	.	8g	.
.	2A	8f	.
.	.	8e-	.
.	.	8d	.
.	.	8c	.
=59	=59	=59	=59
1r	2B-	8d	1r
.	.	8f#	.
.	.	8g	.
.	.	8a-	.
.	2B	8g	.
.	.	8f	.
.	.	8e-	.
.	.	8d	.
=60	=60	=60	=60
1r	2c	2e-	8r
.	.	.	8b
.	.	.	8cc
.	.	.	8dd
.	2r	2e	8cc
.	.	.	8b-
.	.	.	8a
.	.	.	8g
=61	=61	=61	=61
1r	1r	2f	8a
.	.	.	8cc#
.	.	.	8dd
.	.	.	8ee-
.	.	2f#	8dd
.	.	.	8cc
.	.	.	8b-
.	.	.	8a
=62	=62	=62	=62
1r	8r	4g	4b-
.	8e-	.	.
.	8d	4a	4cc
.	8c	.	.
.	8B-	8b-	2dd
.	8A	8cc	.
.	8G	[4dd	.
.	8F#	.	.
=63	=63	=63	=63
1r	8G	4dd]	2ee-
.	8B	.	.
.	8c	[4g	.
.	8d	.	.
.	8c	8g]	2ee
.	8B-	8dd	.
.	8A	8cc	.
.	8G	8b-	.
=64	=64	=64	=64
1r	8A	4a	2ff
.	8c#	.	.
.	8d	4a	.
.	8e-	.	.
.	8d	2r	2ff#
.	8c	.	.
.	8B-	.	.
.	8A	.	.
=65	=65	=65	=65
1r	2B-	[1dd	8gg
.	.	.	8ff#
.	.	.	8gg
.	.	.	8aa-
.	2B	.	8gg
.	.	.	8ff
.	.	.	8ee-
.	.	.	8dd
=66	=66	=66	=66
2r	[1c	8dd]	2ee-
.	.	8b	.
.	.	8cc	.
.	.	8dd	.
2C	.	8cc	2ee
.	.	8b-	.
.	.	8a-	.
.	.	8g	.
=67	=67	=67	=67
2D-	8c]	4f	4ff
.	8A	.	.
.	8B-	4r	4gg
.	8c	.	.
2D	8B-	4r	2aa-
.	8A-	.	.
.	8G	[4b-	.
.	8F	.	.
=68	=68	=68	=68
2E-	2G	8b-]	[1gg
.	.	8b	.
.	.	8cc	.
.	.	8dd-	.
2E	2r	8cc	.
.	.	8b-	.
.	.	8a-	.
.	.	8g	.
=69	=69	=69	=69
[1F	1r	2a-	8gg]
.	.	.	8ee
.	.	.	8ff
.	.	.	8gg-
.	.	2a	8ff
.	.	.	8ee-
.	.	.	8dd-
.	.	.	8cc
=70	=70	=70	=70
2F]	8r	[1b-	2dd-
.	8f	.	.
.	8g	.	.
.	8a-	.	.
2E	8g	.	[2cc
.	8f	.	.
.	8e	.	.
.	8d	.	.
=71	=71	=71	=71
[1A-	8c	8b-]	1cc]
.	8e	8g	.
.	8f	8a-	.
.	8g	8b-	.
.	8f	8a-	.
.	8e-	8g	.
.	8d	8f	.
.	8c	8e-	.
=72	=72	=72	=72
2A-]	1B-	2f	8r
.	.	.	8dd
.	.	.	8ee-
.	.	.	8ff
2G	.	[2g	8ee-
.	.	.	8dd
.	.	.	8cc
.	.	.	8b-
=73	=73	=73	=73
2C	4E-	8g]	[1a-
.	.	8e-	.
.	4A-	8f	.
.	.	8g	.
2D	4B-	8f	.
.	.	8e-	.
.	4F	8d	.
.	.	8c	.
=74	=74	=74	=74
[1E-	[1G	2B-	8a-]
.	.	.	8f#
.	.	.	8g
.	.	.	8a-
.	.	2B	8g
.	.	.	8f
.	.	.	8e-
.	.	.	8d
=75	=75	=75	=75
2E-]	2.G]	2c	8c
.	.	.	8a
.	.	.	8b-
.	.	.	8cc
2E	.	2c#	8b-
.	.	.	8a
.	4A	.	8g
.	.	.	8f#
=76	=76	=76	=76
2D	4B-	4d	8g
.	.	.	8gg
.	4G	4r	8aa
.	.	.	8bb-
2C#	2e	4r	8aa
.	.	.	8gg
.	.	[4a	8ff#
.	.	.	8gg
=77	=77	=77	=77
2D	[2d	8a]	4.b-
.	.	8f#	.
.	.	[4g	.
.	.	.	8cc
2DD	4.d]	8g]	2a
.	.	8e	.
.	.	4f#	.
.	[8c	.	.
=78	=78	=78	=78
2GG	8c]	2g	2g
.	8c	.	.
.	8B	.	.
.	8A	.	.
2r	8G	2r	2dd
.	8F	.	.
.	8E-	.	.
.	8D	.	.
=79	=79	=79	=79
1r	8C	2r	2ee-
.	8B	.	.
.	8c	.	.
.	8d-	.	.
.	8c	2g	2ee
.	8B-	.	.
.	8A-	.	.
.	8G	.	.
=80	=80	=80	=80
1r	8F	2a-	[1ff
.	8E	.	.
.	8F	.	.
.	8G-	.	.
.	8F	2a	.
.	8E-	.	.
.	8D-	.	.
.	8C	.	.
=81	=81	=81	=81
1r	8D-	[1b-	8ff]
.	8C	.	8ee-
.	8D-	.	8ff
.	8E-	.	8gg-
.	8D-	.	8ff
.	8C	.	8ee-
.	8BB-	.	8dd-
.	8AA	.	8cc
=82	=82	=82	=82
1r	8BB-	8b-]	2dd-
.	8C	8a	.
.	8D-	8b-	.
.	8E-	8cc-	.
.	8F	8b-	2dd
.	8G-	8a-	.
.	8A-	8g-	.
.	8B-	8f	.
=83	=83	=83	=83
1r	8E-	2g-	[1ee-
.	8D	.	.
.	8E-	.	.
.	8F	.	.
.	8E-	2g	.
.	8D-	.	.
.	8C	.	.
.	8BB-	.	.
=84	=84	=84	=84
1r	8C	[1a-	8ee-]
.	8BB-	.	8dd-
.	8C	.	8ee-
.	8D-	.	8ff
.	8C	.	8ee-
.	8BB-	.	8dd-
.	8AA-	.	8cc
.	8GG	.	8b
=85	=85	=85	=85
1r	8AA-	8a-]	[1cc
.	8BB-	8g	.
.	8C	8a-	.
.	8D-	8b-	.
.	8E-	8a-	.
.	8F	8g	.
.	8G	8f	.
.	8A-	8e	.
=86	=86	=86	=86
1r	8D	4.f	4cc]
.	8C	.	.
.	8D	.	[4ff
.	8E-	8g	.
.	8D	8a-	2ff_
.	8C	8ee-	.
.	8BB	8dd	.
.	8AA	8cc	.
=87	=87	=87	=87
2r	8GG	1b	8ff]
.	8AA	.	8ff
.	8BB	.	8gg
.	8C	.	8aa-
2GG	8D	.	8gg
.	8E-	.	8ff
.	8F	.	8ee-
.	8G	.	8dd
=88	=88	=88	=88
2AA-	8E-	2cc	8cc
.	8G	.	8ee
.	8A-	.	8ff
.	8B-	.	8gg
2AA	[2c	8r	8ff
.	.	8g	8ee-
.	.	8f	8dd
.	.	8e-	8cc
=89	=89	=89	=89
2BB-	8c]	2d	8dd
.	8A	.	8ff#
.	8B-	.	8gg
.	8c	.	8aa-
2BB	2d	8r	8gg
.	.	8a-	8ff
.	.	8g	8ee-
.	.	8f	8dd
=90	=90	=90	=90
4C	2e-	2e-	8cc
.	.	.	8b-
4BB-	.	.	8cc
.	.	.	8dd-
4AA-	2e	2r	8cc
.	.	.	8b-
4C	.	.	8a-
.	.	.	8g
=91	=91	=91	=91
4FF	2f	1r	8a-
.	.	.	8cc
4AA-	.	.	8ff
.	.	.	8gg
4DD	2f#	.	8aa
.	.	.	8ee-
4D	.	.	8dd
.	.	.	8cc
=92	=92	=92	=92
4GG	8g	2r	[2b
.	8f	.	.
4D	8g	.	.
.	8a-	.	.
4G	8g	2g	8b]
.	8f	.	8aa-
4GG	8e-	.	8gg
.	8d	.	8ff
=93	=93	=93	=93
4C	[2c	2a-	8ee-
.	.	.	8dd
4E-	.	.	8cc
.	.	.	8b-
4FF#	8c]	2a	8a
.	8c	.	8ee-
4D	8B-	.	8dd
.	8A	.	8ff#
=94	=94	=94	=94
2GG	8G	2b-	2gg
.	8F#	.	.
.	8G	.	.
.	8A-	.	.
2r	8G	2b	2dd
.	8F	.	.
.	8E-	.	.
.	8D	.	.
=95	=95	=95	=95
1r	4C	8cc	2ee-
.	.	8b	.
.	4G	8cc	.
.	.	8dd-	.
.	4c	8cc	2ee
.	.	8b-	.
.	4C	8a-	.
.	.	8g	.
=96	=96	=96	=96
1r	8F	2a-	2ff
.	8A-	.	.
.	8c	.	.
.	8e-	.	.
.	8d	2a	2ff#
.	8c	.	.
.	8B-	.	.
.	8A	.	.
=97	=97	=97	=97
2r	8G	1b	8gg
.	8d	.	8ff
.	8e-	.	8gg
.	8f	.	8aa-
2GG	8e-	.	8gg
.	8d	.	8ff
.	8g	.	8ee-
.	8f	.	8dd
=98	=98	=98	=98
2AA-	[2e-	8cc	[2cc
.	.	8b-	.
.	.	8a-	.
.	.	8g	.
2AA	8e-]	[2f	8cc]
.	8e-	.	8cc
.	8d	.	8ff
.	8c	.	8ee-
=99	=99	=99	=99
2BB-	4B-	8f]	[2dd
.	.	8f	.
.	[4f	8b-	.
.	.	8a-	.
2BB	8f]	2g	8dd]
.	8f	.	8dd
.	8e-	.	8gg
.	8d	.	8ff
=100	=100	=100	=100
[1C	8c	4g	8ee-
.	8e-	.	8gg
.	8d	4g	8b
.	8f	.	8dd
.	8e-	4g	8cc
.	8g	.	8ee-
.	8B	4g	8dd
.	8d	.	8ff
=101	=101	=101	=101
8C]	[1cT	[1gT	[1ee-T
8E-	.	.	.
8D	.	.	.
8F	.	.	.
8E-	.	.	.
8G	.	.	.
8BB	.	.	.
8D	.	.	.
=102	=102	=102	=102
8C	1cT_	1gT]	1ee-T_
8E-	.	.	.
8BB	.	.	.
8D	.	.	.
8C	.	.	.
8E-	.	.	.
8GG	.	.	.
8BB-	.	.	.
=103	=103	=103	=103
1AA-	1c]	2f	8ee-]
.	.	.	8dd
.	.	.	8ff
.	.	.	8ee-
.	.	2f#	8dd
.	.	.	8cc
.	.	.	8b
.	.	.	8cc
=104	=104	=104	=104
8GG	2d	2g	(4cc
8G	.	.	.
8F	.	.	4b)
8G	.	.	.
8E-	2r	4r	4r
8F	.	.	.
8D	.	8f	4g
8E-	.	8g	.
=105	=105	=105	=105
4C	1r	8e-	4cc
.	.	8c	.
4F	.	8d	4cc
.	.	8e-	.
4E-	.	8f	4cc
.	.	8g	.
4D	.	8a	8cc
.	.	8b	8dd
=106	=106	=106	=106
[2C	1r	8cc	[2ee-
.	.	8g	.
.	.	8e-	.
.	.	8g	.
8C]	.	[2c	8ee-]
8A	.	.	8cc
8F#	.	.	8a
8A	.	.	8cc
=107	=107	=107	=107
4D	1r	8c]	4f#
.	.	8B-	.
4C	.	8A	4ee-
.	.	8c	.
4D	.	8B-	4dd
.	.	8A	.
4DD	.	8G	4cc
.	.	8F#	.
=108	=108	=108	=108
2GG	1r	8G	4b-
.	.	8B-	.
.	.	8c	8a
.	.	8d	8b-
4r	.	[2e-	8g
.	.	.	8gg
4C	.	.	8ff
.	.	.	8gg
=109	=109	=109	=109
2FF	1r	8e-]	4a-
.	.	8d	.
.	.	8c	4gg
.	.	8e-	.
4r	.	8d	4ff
.	.	8c	.
4FF	.	8B	4dd
.	.	8A	.
=110	=110	=110	=110
2GG	1r	8B	4g
.	.	8G	.
.	.	8A	4ff
.	.	8B	.
4r	.	8c	4ee-
.	.	8d	.
4C	.	8e-	[4cc
.	.	8f	.
=111	=111	=111	=111
4G	1r	8e-	8cc]
.	.	8c	8ee-
4G	.	8d	8dd
.	.	8e-	8cc
4G	.	8d	8b
.	.	8g	8a
4G	.	8e-	8g
.	.	8d	8f
=112	=112	=112	=112
[2A-	1r	8c	4e-
.	.	8d	.
.	.	8e-	2cc
.	.	8c	.
8A-]	.	[2f	.
8F	.	.	.
8D	.	.	4ff
8F	.	.	.
=113	=113	=113	=113
4BB	1r	8f]	4g
.	.	8e-	.
4A-	.	8d	4b
.	.	8f	.
4G	.	8e-	4cc
.	.	8f	.
4F	.	8d	4b
.	.	8e-	.
=114	=114	=114	=114
4E-	2r	4G	8cc
.	.	.	8gg
8D	.	4B	8ff
8E-	.	.	8gg
8C	4r	4c	8ee-
8D	.	.	8ff
8BB-	4G	[4g	8dd
8C	.	.	8ee-
=115	=115	=115	=115
1AA	4c	8g]	[1cc
.	.	8b-	.
.	4c	8a	.
.	.	8g	.
.	4c	8f#	.
.	.	8g	.
.	4c	8e	.
.	.	8f#	.
=116	=116	=116	=116
8GG	[2e-	[2g	8cc]
8G	.	.	8b
8E-	.	.	8cc
8G	.	.	8dd
[2C	8e-]	4g]	[2ee-
.	8c	.	.
.	8A	4cc	.
.	8c	.	.
=117	=117	=117	=117
8C]	4F#	[2a	4ee-]
8c	.	.	.
8A	4e-	.	4cc
8c	.	.	.
2F#	4d	8a]	[2aa
.	.	8cc	.
.	4c	8dd	.
.	.	8ee-	.
=118	=118	=118	=118
[2G	4B-	2.dd	8aa]
.	.	.	8gg
.	8A	.	8ff#
.	8B-	.	8gg
8G]	4G	.	[2bb-
8G	.	.	.
8D	4f	4dd	.
8F	.	.	.
=119	=119	=119	=119
4E	2g	2cc	8bb-]
.	.	.	8ff
4G	.	.	8ee
.	.	.	8dd
4C	4r	4r	8ee
.	.	.	[4.gg
4E	4g	8cc	.
.	.	8b-	.
=120	=120	=120	=120
[2F	8c	4a-	8gg]
.	8B-	.	8cc
.	8A-	4r	8ff
.	8c	.	8gg
8F]	4F	4r	[2aa-
8F	.	.	.
8C	4e-	4cc	.
8E-	.	.	.
=121	=121	=121	=121
4D	2f	2b-	8aa-]
.	.	.	8ee-
4F	.	.	8dd
.	.	.	8cc
4BB-	4r	4r	8dd
.	.	.	[4.ff
4D	4f	8b-	.
.	.	8a-	.
=122	=122	=122	=122
[2E-	8B-	4g	8ff]
.	8A-	.	8b-
.	8G	4r	8ee-
.	8B-	.	8ff
8E-]	4e-	2r	[2gg
8E-	.	.	.
8C	4ee-	.	.
8E-	.	.	.
=123	=123	=123	=123
1AA-	8cc	1r	8gg]
.	8ee-	.	8cc
.	8ff	.	8dd
.	8gg	.	8ee-
.	8ff	.	[2ff
.	8ee-	.	.
.	8dd	.	.
.	8cc	.	.
=124	=124	=124	=124
[1GG	8B	2r	8ff]
.	8f	.	8g
.	8e-	.	8a
.	8d	.	8b
.	4e-	4r	8cc
.	.	.	8dd
.	4A	4c	8ee-
.	.	.	8f#
=125	=125	=125	=125
1GG_	8B	4g	8g
.	8f	.	8dd
.	8e-	4g	8cc
.	8d	.	8b
.	8e-	4g	8cc
.	8d	.	8b
.	8e-	4g	8cc
.	8c	.	[8ee-
=126	=126	=126	=126
1GG_	2f	[2a-	8ee-]
.	.	.	8dd
.	.	.	8ee-
.	.	.	8cc
.	[2B	8a-]	[2dd
.	.	8f	.
.	.	8d	.
.	.	8f	.
=127	=127	=127	=127
1GG]	1B]	4B	8dd]
.	.	.	4ff
.	.	4a-	.
.	.	.	4ff
.	.	4g	.
.	.	.	4ee-
.	.	4f	.
.	.	.	8dd
=128	=128	=128	=128
4C	4G	4e-	4cc
4D	4F	8d	4aa- 4b
.	.	8e-	.
4E-	4G	8c	4gg 4cc
.	.	8e-	.
4F	4A-	4d 4cc	16ff
.	.	.	16ee-
.	.	.	8dd
=129	=129	=129	=129
2G	1G	4e- 4cc	2cc
.	.	4g 4ee-	.
2GG	.	8f	8dd 8b
.	.	8e-	8cc 8a
.	.	4f	4dd 4b 4g
=130	=130	=130	=130
[2CC	[2G	(2f	2dd 2b 2g
4CC]	4G]	4e-)	4cc 4g
==	==	==	==
*-	*-	*-	*-
